img/icon/web_icons_svg/Shipping-Truck.svg

<svg width="60" height="60" viewBox="0 0 60 60" fill="none" xmlns="http://www.w3.org/2000/svg">
<path d="M47.5076 47.209C48.0057 47.1855 48.4732 47.1621 48.9092 47.1387C51.5775 46.9969 53.7139 44.9871 53.9635 42.3281C54.2506 39.2824 54.5553 34.8164 54.6021 29.2992C54.6103 28.3383 54.4147 27.3844 53.967 26.5348C52.8068 24.334 50.0893 19.8633 46.0018 17.1668C45.1369 16.5973 44.1127 16.3477 43.0768 16.3125C40.1049 16.2129 36.8307 16.1391 33.499 16.084" stroke="#373C22" stroke-width="3" stroke-linecap="round" stroke-linejoin="round"/>
<path d="M5.4082 31.1719C5.39648 31.8047 5.39062 32.4457 5.39062 33.0891C5.39062 37.1859 5.63672 40.4191 5.90508 42.7184C6.19336 45.1992 8.22539 46.9828 10.7191 47.1199C11.2582 47.1492 11.8488 47.1797 12.4922 47.2102" stroke="#373C22" stroke-width="3" stroke-linecap="round" stroke-linejoin="round"/>
<path fill-rule="evenodd" clip-rule="evenodd" d="M42.1125 22.0067C44.6684 23.4563 46.5316 26.2489 47.6227 28.2739C48.2906 29.5161 47.5313 30.9715 46.125 31.0922C44.2031 31.2586 42.4418 31.1368 41.2008 30.9833C40.1227 30.8497 39.375 29.911 39.375 28.8247V23.6954C39.3753 23.1921 39.5755 22.7095 39.9315 22.3537C40.2874 21.9979 40.7701 21.7981 41.2734 21.7981C41.5664 21.7981 41.857 21.8614 42.1125 22.0067Z" stroke="#373C22" stroke-width="3" stroke-linecap="round" stroke-linejoin="round"/>
<path d="M33.5156 31.1719H19.4531H5.39062V18.2812C5.39062 14.7926 5.50078 12.1137 5.63203 10.1602C5.79961 7.66523 7.72383 5.7832 10.2199 5.6332C12.3773 5.5043 15.4195 5.39062 19.4531 5.39062C23.4867 5.39062 26.5289 5.5043 28.6852 5.6332C31.1824 5.7832 33.1066 7.66523 33.2742 10.1613C33.4055 12.1137 33.5156 14.7926 33.5156 18.2812V31.1719Z" stroke="#373C22" stroke-width="3" stroke-linecap="round" stroke-linejoin="round"/>
<path d="M25.2856 47.5547C28.4293 47.5862 31.5732 47.5862 34.7169 47.5547" stroke="#373C22" stroke-width="3" stroke-linecap="round" stroke-linejoin="round"/>
<path d="M34.6875 48.1641C34.6875 49.8735 35.3666 51.5129 36.5753 52.7216C37.784 53.9303 39.4234 54.6094 41.1328 54.6094C42.8422 54.6094 44.4816 53.9303 45.6903 52.7216C46.8991 51.5129 47.5781 49.8735 47.5781 48.1641C47.5781 46.4547 46.8991 44.8153 45.6903 43.6065C44.4816 42.3978 42.8422 41.7188 41.1328 41.7188C39.4234 41.7188 37.784 42.3978 36.5753 43.6065C35.3666 44.8153 34.6875 46.4547 34.6875 48.1641Z" stroke="#373C22" stroke-width="3" stroke-linecap="round" stroke-linejoin="round"/>
<path d="M12.4219 48.1641C12.4219 49.0105 12.5886 49.8486 12.9125 50.6306C13.2364 51.4126 13.7112 52.1231 14.3097 52.7216C14.9082 53.3201 15.6187 53.7948 16.4007 54.1188C17.1827 54.4427 18.0208 54.6094 18.8672 54.6094C19.7136 54.6094 20.5517 54.4427 21.3337 54.1188C22.1157 53.7948 22.8262 53.3201 23.4247 52.7216C24.0232 52.1231 24.498 51.4126 24.8219 50.6306C25.1458 49.8486 25.3125 49.0105 25.3125 48.1641C25.3125 46.4547 24.6334 44.8153 23.4247 43.6065C22.216 42.3978 20.5766 41.7188 18.8672 41.7188C17.1578 41.7188 15.5184 42.3978 14.3097 43.6065C13.1009 44.8153 12.4219 46.4547 12.4219 48.1641Z" stroke="#373C22" stroke-width="3" stroke-linecap="round" stroke-linejoin="round"/>
</svg>

<svg xmlns="http://www.w3.org/2000/svg" width="60" height="60" fill="none" viewBox="0 0 60 60"><path stroke="#676767" stroke-linecap="round" stroke-linejoin="round" stroke-width="3" d="M47.508 47.209c.498-.024.965-.047 1.401-.07 2.669-.142 4.805-2.152 5.055-4.81.287-3.047.591-7.513.638-13.03.008-.96-.187-1.915-.635-2.764-1.16-2.201-3.878-6.672-7.965-9.368-.865-.57-1.89-.82-2.925-.855-2.972-.1-6.246-.173-9.578-.228M5.408 31.172c-.012.633-.017 1.274-.017 1.917 0 4.097.246 7.33.514 9.63.288 2.48 2.32 4.264 4.814 4.4.54.03 1.13.06 1.773.091"/><path stroke="#676767" stroke-linecap="round" stroke-linejoin="round" stroke-width="3" d="M42.112 22.007c2.556 1.45 4.42 4.242 5.51 6.267.669 1.242-.09 2.697-1.497 2.818a23.958 23.958 0 0 1-4.924-.109c-1.078-.133-1.826-1.072-1.826-2.158v-5.13a1.899 1.899 0 0 1 1.898-1.897c.293 0 .584.063.84.209z" clip-rule="evenodd"/><path stroke="#676767" stroke-linecap="round" stroke-linejoin="round" stroke-width="3" d="M33.516 31.172H5.39v-12.89c0-3.49.11-6.168.241-8.122.168-2.495 2.092-4.377 4.588-4.527 2.157-.129 5.2-.242 9.233-.242 4.034 0 7.076.113 9.232.242 2.497.15 4.422 2.032 4.59 4.528.13 1.953.24 4.632.24 8.12v12.89zm-8.23 16.383c3.143.031 6.287.031 9.43 0"/><path stroke="#676767" stroke-linecap="round" stroke-linejoin="round" stroke-width="3" d="M34.688 48.164a6.445 6.445 0 1 0 12.89 0 6.445 6.445 0 0 0-12.89 0zm-22.266 0a6.445 6.445 0 1 0 12.89 0 6.445 6.445 0 0 0-12.89 0z"/></svg>
